src/raw/swimming/icon_32.svg

<svg width="32" height="32" viewBox="0 0 32 32" fill="none" xmlns="http://www.w3.org/2000/svg">
<path d="M26 14.9267C27.933 14.9267 29.5 13.3597 29.5 11.4267C29.5 9.4937 27.933 7.9267 26 7.9267C24.067 7.9267 22.5 9.4937 22.5 11.4267C22.5 13.3597 24.067 14.9267 26 14.9267Z" stroke="#71717A" stroke-width="1.5" stroke-linecap="round" stroke-linejoin="round"/>
<path d="M9.83887 18.6667L14.9469 15.4667L11.2002 11.192C10.7976 10.732 10.5058 10.1857 10.3472 9.59531C10.1886 9.00489 10.1675 8.38597 10.2854 7.7861C10.4034 7.18624 10.6573 6.62139 11.0275 6.13494C11.3978 5.6485 11.8747 5.25341 12.4215 4.98001L18.1055 2.13335C18.3407 2.01343 18.5972 1.94125 18.8604 1.92096C19.1236 1.90067 19.3882 1.93267 19.6389 2.01513C19.8897 2.09758 20.1216 2.22886 20.3214 2.40139C20.5211 2.57391 20.6848 2.78427 20.8029 3.02035C20.9209 3.25642 20.9911 3.51353 21.0094 3.77685C21.0276 4.04018 20.9935 4.30451 20.9091 4.5546C20.8247 4.8047 20.6916 5.03561 20.5176 5.23403C20.3435 5.43245 20.1319 5.59445 19.8949 5.71068L15.3615 7.97735C15.2256 8.04684 15.1073 8.14651 15.0158 8.26873C14.9242 8.39095 14.8619 8.53248 14.8334 8.68251C14.805 8.83253 14.8112 8.98708 14.8517 9.13432C14.8922 9.28155 14.9658 9.41759 15.0669 9.53201L22.1731 17.6532" stroke="#71717A" stroke-width="1.5" stroke-linecap="round" stroke-linejoin="round"/>
<path d="M30.9999 22.6667C28.9999 22.6667 27.9999 24.6667 25.9999 24.6667C23.9999 24.6667 22.9999 22.6667 20.9999 22.6667C18.9999 22.6667 17.9999 24.6667 15.9999 24.6667C13.9999 24.6667 12.9999 22.6667 10.9999 22.6667C8.99994 22.6667 7.99994 24.6667 5.99994 24.6667C4.01171 24.6667 3.01175 22.6902 1.03516 22.6669" stroke="#71717A" stroke-width="1.5" stroke-linecap="round" stroke-linejoin="round"/>
<path d="M1 28C3 28 4 30 6 30C8 30 9 28 11 28C13 28 14 30 16 30C18 30 19 28 21 28C23 28 24 30 26 30C27.9895 30 28.9895 28.0209 30.9687 28.0002" stroke="#71717A" stroke-width="1.5" stroke-linecap="round" stroke-linejoin="round"/>
</svg>

<svg xmlns="http://www.w3.org/2000/svg" width="32" height="32" fill="none" viewBox="0 0 32 32">
  <path stroke="#3F3F46" stroke-linecap="round" stroke-linejoin="round" stroke-width="2"
    d="M26 14.927a3.5 3.5 0 1 0 0-7 3.5 3.5 0 0 0 0 7ZM9.838 18.667l5.108-3.2-3.746-4.275A4 4 0 0 1 12.42 4.98l5.684-2.847a2 2 0 1 1 1.79 3.578L15.36 7.977a1.001 1.001 0 0 0-.295 1.555l7.133 8.152M31 22.666c-2 0-3 2-5 2s-3-2-5-2-3 2-5 2-3-2-5-2-3 2-5 2c-1.988 0-2.988-1.975-4.963-2M1 28c2 0 3 2 5 2s3-2 5-2 3 2 5 2 3-2 5-2 3 2 5 2c1.99 0 2.99-1.98 4.969-2" />
</svg>
